X: 1
T: The Sportsman's
R: hornpipe
M: 4/4
L: 1/8
C: Trad
K: Ador
r: 32
P:A
|:AB|c2 cA B2 BA|GABc dBGB|c2 cA B2 BA|E2A2A2 AB|
c2 cA B2 BA|GABc dBGB|gfge dBAG|E2A2A2:|
P:B
|:AE|ABcd efge|afdf edcB|ABcd efge|afdf e2 (3efg|
a2 af g2 ge|c2 ce dBGB|cBcA BABG|E2 A2 A2:|
